src/img/calc-modal-img.svg

<svg width="300" height="242" viewBox="0 0 300 242" fill="none" xmlns="http://www.w3.org/2000/svg">
<path d="M198.166 175.029L222.049 147.028H205.578L189.931 140.852L198.166 175.029Z" fill="#A19B9B"/>
<path d="M190.655 134.35L210.086 37.1516C211.869 28.2313 220.546 22.4456 229.466 24.2289C238.386 26.0121 244.172 34.689 242.389 43.6093L222.958 140.807C221.875 146.223 216.607 149.736 211.192 148.653L198.5 146.116C193.085 145.033 189.572 139.765 190.655 134.35Z" fill="#A19B9B"/>
<path d="M208.049 40.3777C210.931 45.1139 224.932 53.5546 242.638 47.482" stroke="white" stroke-width="4" stroke-linecap="round" stroke-linejoin="round"/>
<path d="M206.402 48.6133C209.422 53.2657 224.089 61.557 242.638 55.5919" stroke="white" stroke-width="4" stroke-linecap="round" stroke-linejoin="round"/>
<path d="M189.107 138.769C192.127 143.421 206.794 151.712 225.343 145.747" stroke="white" stroke-width="4" stroke-linecap="round" stroke-linejoin="round"/>
<path d="M193.509 161.828C193.509 161.828 201.46 167.593 208.872 165.534" stroke="white" stroke-width="4" stroke-linecap="round" stroke-linejoin="round"/>
<path d="M142 191H273.75C287.143 191 298 201.857 298 215.25V215.25C298 228.643 287.143 239.5 273.75 239.5H68" stroke="#A19B9B" stroke-width="4" stroke-linecap="round" stroke-linejoin="round"/>
<path d="M38.7175 147.738C43.4742 113.039 27.2339 63.0261 16.7029 38.0139C15.7408 35.7288 16.5212 33.0889 18.7462 31.995C42.9296 20.1062 102.505 14.6172 118.709 13.3135C121.118 13.1197 123.245 14.6415 123.798 16.9948C128.443 36.7838 147.573 124.633 129.125 156.657C128.257 158.164 126.579 158.935 124.844 158.829L43.5342 153.839C40.4704 153.651 38.3006 150.779 38.7175 147.738Z" stroke="#A19B9B" stroke-width="4"/>
<path d="M42.5 154C42.5 154 33.5 165.5 24.5 168.5" stroke="#A19B9B" stroke-width="2" stroke-linecap="round" stroke-linejoin="round"/>
<path d="M52.5 154C52.5 154 49 163.5 34.5 167.5" stroke="#A19B9B" stroke-width="2" stroke-linecap="round" stroke-linejoin="round"/>
<path d="M63.5 154C63.5 154 55 167 45 169" stroke="#A19B9B" stroke-width="2" stroke-linecap="round" stroke-linejoin="round"/>
<path d="M71.5 156C71.5 156 68 165 59 168.5" stroke="#A19B9B" stroke-width="2" stroke-linecap="round" stroke-linejoin="round"/>
<path d="M81.5 156C81.5 156 78 165.5 69 168.5" stroke="#A19B9B" stroke-width="2" stroke-linecap="round" stroke-linejoin="round"/>
<path d="M91.5 156C91.5 156 88 165 79 168.5" stroke="#A19B9B" stroke-width="2" stroke-linecap="round" stroke-linejoin="round"/>
<path d="M101.5 157C101.5 157 96 166 89 169.5" stroke="#A19B9B" stroke-width="2" stroke-linecap="round" stroke-linejoin="round"/>
<path d="M109.5 158C109.5 158 104.5 167 97 170.5" stroke="#A19B9B" stroke-width="2" stroke-linecap="round" stroke-linejoin="round"/>
<path d="M118 160C118 160 111.5 170 105.5 172.5" stroke="#A19B9B" stroke-width="2" stroke-linecap="round" stroke-linejoin="round"/>
<path d="M126.5 160C126.5 160 122 171.5 114 172.5" stroke="#A19B9B" stroke-width="2" stroke-linecap="round" stroke-linejoin="round"/>
<path d="M20.5882 30.5C20.5882 30.5 10.7941 19 1 16" stroke="#A19B9B" stroke-width="2" stroke-linecap="round" stroke-linejoin="round"/>
<path d="M30.5882 26.5C30.5882 26.5 26.7794 17 11 13" stroke="#A19B9B" stroke-width="2" stroke-linecap="round" stroke-linejoin="round"/>
<path d="M42.1324 25C42.1324 25 32.8824 12 22 10" stroke="#A19B9B" stroke-width="2" stroke-linecap="round" stroke-linejoin="round"/>
<path d="M48.6029 21.5C48.6029 21.5 44.7941 12.5 35 9" stroke="#A19B9B" stroke-width="2" stroke-linecap="round" stroke-linejoin="round"/>
<path d="M60.6029 19.5C60.6029 19.5 56.7941 10 47 7" stroke="#A19B9B" stroke-width="2" stroke-linecap="round" stroke-linejoin="round"/>
<path d="M72.6029 17.5C72.6029 17.5 68.7941 8.5 59 5" stroke="#A19B9B" stroke-width="2" stroke-linecap="round" stroke-linejoin="round"/>
<path d="M87.6029 16.5C87.6029 16.5 81.6176 7.5 74 4" stroke="#A19B9B" stroke-width="2" stroke-linecap="round" stroke-linejoin="round"/>
<path d="M96.6029 15.5C96.6029 15.5 91.1618 6.5 83 3" stroke="#A19B9B" stroke-width="2" stroke-linecap="round" stroke-linejoin="round"/>
<path d="M105.603 13.5C105.603 13.5 98.5294 3.5 92 1" stroke="#A19B9B" stroke-width="2" stroke-linecap="round" stroke-linejoin="round"/>
<path d="M115.603 13.5C115.603 13.5 110.706 2 102 1" stroke="#A19B9B" stroke-width="2" stroke-linecap="round" stroke-linejoin="round"/>
<path d="M66.4678 55.39C66.8896 56.9619 66.8414 57.7778 66.6946 58.2008C66.585 58.517 66.3609 58.7904 65.6984 59.0673C64.9714 59.3712 63.9631 59.5757 62.5399 59.8326C62.4222 59.8539 62.3022 59.8754 62.1802 59.8973C60.8851 60.1298 59.3569 60.4041 57.706 60.8471C56.1687 61.2596 54.6475 61.7858 53.2451 62.271C53.008 62.353 52.7743 62.4339 52.5445 62.5128C50.9149 63.0725 49.4982 63.5291 48.2703 63.7366C47.032 63.9459 46.2172 63.8584 45.6685 63.5715C45.1775 63.3148 44.6303 62.7544 44.2536 61.3505C42.6934 55.5359 46.3217 49.4065 52.51 47.7461C58.6984 46.0856 64.9077 49.5755 66.4678 55.39Z" stroke="#A19B9B" stroke-width="3"/>
<path d="M111.859 54.8063C111.702 56.4262 111.37 57.1732 111.084 57.5178C110.87 57.7753 110.565 57.9526 109.847 57.9792C109.06 58.0085 108.044 57.8459 106.621 57.5867C106.503 57.5652 106.383 57.5433 106.262 57.521C104.967 57.2838 103.44 57.004 101.739 56.839C100.154 56.6854 98.5453 56.644 97.0618 56.6058C96.8111 56.5994 96.5639 56.593 96.321 56.5862C94.5986 56.538 93.1118 56.468 91.8892 56.2311C90.6562 55.9922 89.9241 55.6242 89.5111 55.1629C89.1415 54.7501 88.8259 54.0332 88.9662 52.5864C89.5473 46.5943 95.0969 42.1293 101.474 42.7477C107.852 43.3662 112.44 48.8142 111.859 54.8063Z" stroke="#A19B9B" stroke-width="3"/>
<path d="M61 102C70.5 113 100.5 115.5 113.5 92.5" stroke="#A19B9B" stroke-width="4" stroke-linecap="round" stroke-linejoin="round"/>
<ellipse cx="51.5" cy="55" rx="3.5" ry="3" fill="#A19B9B"/>
<ellipse cx="97.5" cy="50" rx="3.5" ry="3" fill="#A19B9B"/>
</svg>

<svg width="300" height="242" fill="none" xmlns="http://www.w3.org/2000/svg"><path d="M198.166 175.029l23.883-28.001h-16.471l-15.647-6.176 8.235 34.177z" fill="#A19B9B"/><path d="M190.655 134.35l19.431-97.198c1.783-8.92 10.46-14.706 19.38-12.923 8.92 1.783 14.706 10.46 12.923 19.38l-19.431 97.198c-1.083 5.416-6.351 8.929-11.766 7.846l-12.692-2.537c-5.415-1.083-8.928-6.351-7.845-11.766z" fill="#A19B9B"/><path d="M208.049 40.378c2.882 4.736 16.883 13.177 34.589 7.104M206.402 48.613c3.02 4.653 17.687 12.944 36.236 6.979M189.107 138.769c3.02 4.652 17.687 12.943 36.236 6.978M193.509 161.828s7.951 5.765 15.363 3.706" stroke="#fff" stroke-width="4" stroke-linecap="round" stroke-linejoin="round"/><path d="M142 191h131.75c13.393 0 24.25 10.857 24.25 24.25v0c0 13.393-10.857 24.25-24.25 24.25H68" stroke="#A19B9B" stroke-width="4" stroke-linecap="round" stroke-linejoin="round"/><path d="M38.718 147.738c4.756-34.699-11.484-84.712-22.015-109.724-.962-2.285-.182-4.925 2.043-6.019 24.184-11.889 83.759-17.378 99.963-18.681 2.409-.194 4.536 1.328 5.089 3.68 4.645 19.79 23.775 107.639 5.327 139.663-.868 1.507-2.546 2.278-4.281 2.172l-81.31-4.99c-3.064-.188-5.233-3.06-4.816-6.101z" stroke="#A19B9B" stroke-width="4"/><path d="M42.5 154s-9 11.5-18 14.5M52.5 154s-3.5 9.5-18 13.5M63.5 154S55 167 45 169M71.5 156S68 165 59 168.5M81.5 156S78 165.5 69 168.5M91.5 156S88 165 79 168.5M101.5 157S96 166 89 169.5M109.5 158s-5 9-12.5 12.5M118 160s-6.5 10-12.5 12.5M126.5 160s-4.5 11.5-12.5 12.5M20.588 30.5S10.794 19 1 16M30.588 26.5S26.78 17 11 13M42.132 25S32.882 12 22 10M48.603 21.5S44.794 12.5 35 9M60.603 19.5S56.794 10 47 7M72.603 17.5S68.794 8.5 59 5M87.603 16.5S81.618 7.5 74 4M96.603 15.5S91.162 6.5 83 3M105.603 13.5S98.529 3.5 92 1M115.603 13.5S110.706 2 102 1" stroke="#A19B9B" stroke-width="2" stroke-linecap="round" stroke-linejoin="round"/><path d="M66.468 55.39c.422 1.572.373 2.388.227 2.81-.11.317-.334.59-.997.867-.727.304-1.735.509-3.158.766l-.36.064c-1.295.233-2.823.507-4.474.95-1.537.413-3.059.939-4.46 1.424l-.702.242c-1.63.56-3.046 1.016-4.274 1.224-1.238.209-2.053.121-2.602-.166-.49-.256-1.038-.817-1.414-2.22-1.56-5.815 2.068-11.944 8.256-13.605 6.188-1.66 12.398 1.83 13.958 7.644zM111.859 54.806c-.157 1.62-.489 2.367-.775 2.712-.214.257-.519.435-1.237.461-.787.03-1.803-.133-3.226-.392l-.359-.066c-1.295-.237-2.822-.517-4.523-.682-1.585-.154-3.194-.195-4.677-.233l-.741-.02c-1.722-.048-3.21-.118-4.432-.355-1.233-.239-1.965-.607-2.378-1.068-.37-.413-.685-1.13-.545-2.577.581-5.992 6.13-10.457 12.508-9.838 6.378.618 10.966 6.066 10.385 12.058z" stroke="#A19B9B" stroke-width="3"/><path d="M61 102c9.5 11 39.5 13.5 52.5-9.5" stroke="#A19B9B" stroke-width="4" stroke-linecap="round" stroke-linejoin="round"/><ellipse cx="51.5" cy="55" rx="3.5" ry="3" fill="#A19B9B"/><ellipse cx="97.5" cy="50" rx="3.5" ry="3" fill="#A19B9B"/></svg>
